X: 15
T: THE GREEN FIELDS OF ERIN
R: reel
Z: 2006 John Chambers <jc:trillian.mit.edu>
B: "Rinnci na h-\'Eireann" Elizabeth Burchenal, ed. G.Schirmer (1925) p.22
M: 2/4
L: 1/16
Q: 1/4=112
K: Ador
|: "A"A2^cA eAcA | "G"BGBd gedB | "A"A2^cA eAcA | "Em"BGEF GABG  |
   "A"A2^cA eAcA | "G"BGBd gedB | "Am"A2cA eAcA | "Em"BGEF GABd :|
|: "Am"eaag eaag | "Em"efgf efgf | "Am"eaag eaag | "Em"egfa gedB |
   "Am"eaab c'abg | "Em"egfa gfge | "G/D"dega bg"B7"af | "Em"egfa gedB :|

%%sep 2 1 500

